synths/sSILVER.svg

<svg width="480" height="480" viewBox="0 0 480 480" fill="none" xmlns="http://www.w3.org/2000/svg">
<circle cx="240" cy="240" r="240" fill="url(#paint0_linear)"/>
<mask id="mask0" mask-type="alpha" maskUnits="userSpaceOnUse" x="0" y="0" width="480" height="480">
<circle cx="240" cy="240" r="240" fill="url(#paint1_linear)"/>
</mask>
<g mask="url(#mask0)">
<path fill-rule="evenodd" clip-rule="evenodd" d="M123.924 146.839L138.76 165H173.312L196.192 137.076L174.636 110.748C156.805 90.694 136.027 81 112.011 81H12V138.71H106.428C113.355 138.71 119.293 141.538 123.848 146.752L123.924 146.839ZM179.963 106.205L205.24 137.078L176.626 172H135.439L118.576 151.357C115.289 147.595 111.243 145.71 106.428 145.71H7.95094C7.07626 145.71 6.36061 145.433 5.82167 144.879C5.27389 144.334 5 143.717 5 143.056V76.6539C5 75.9927 5.27389 75.385 5.82167 74.831C6.36061 74.277 7.07626 74 7.95094 74H112.011C138.27 74 160.923 84.7408 179.963 106.205ZM123.852 332.909L123.701 333.071C119.042 338.081 113.205 340.951 106.428 340.951H12.3269V399H111.685C135.94 399 156.82 389.299 174.636 369.252L219.1 315H138.518L123.852 332.909ZM135.203 308H233.888L179.963 373.795C160.923 395.268 138.164 406 111.685 406H7.95094C7.07626 406 6.41363 405.723 5.9807 405.169C5.53894 404.615 5.3269 403.9 5.3269 403.007V336.605C5.3269 335.943 5.53894 335.336 5.9807 334.782C6.41363 334.228 7.07626 333.951 7.95094 333.951H106.428C111.022 333.951 115.068 332.074 118.576 328.303L135.203 308ZM362.153 328.643C365.439 332.19 369.371 333.96 373.974 333.96H472.451C473.325 333.96 473.979 334.237 474.421 334.791C474.854 335.345 475.075 336.069 475.075 336.944V403.346C475.075 404.007 474.854 404.624 474.421 405.169C473.979 405.723 473.325 406 472.451 406H368.717C342.238 406 319.585 395.268 300.766 373.795L246.848 308H345.245L362.153 328.643ZM341.93 315H261.635L306.106 369.268C323.696 389.299 344.46 399 368.717 399H468.075V340.96H373.974C367.312 340.96 361.552 338.295 357.018 333.4L356.872 333.244L341.93 315ZM361.826 151.357C365.112 147.595 369.159 145.71 373.974 145.71H472.451C473.325 145.71 473.979 145.433 474.421 144.879C474.854 144.334 475.075 143.717 475.075 143.056V76.6539C475.075 75.7693 474.854 75.108 474.421 74.6612C473.979 74.2234 473.325 74 472.451 74H368.717C342.238 74 319.479 84.6246 300.439 105.874L246.427 172H344.868L361.826 151.357ZM341.559 165L356.484 146.832L356.554 146.752C361.109 141.538 367.047 138.71 373.974 138.71H468.075V81H368.717C344.443 81 323.562 90.6107 305.758 110.428L261.183 165H341.559Z" fill="#00D1FF"/>
</g>
<path d="M70.0305 268.92C62.6705 268.92 55.6572 267.827 48.9905 265.64C42.3772 263.4 37.3105 260.6 33.7905 257.24L46.9905 245.72C49.9772 248.387 53.6039 250.6 57.8705 252.36C62.1372 254.067 66.5905 254.92 71.2305 254.92C79.5505 254.92 83.7105 253.4 83.7105 250.36C83.7105 249.293 83.2572 248.52 82.3505 248.04C81.4972 247.507 79.8705 247.107 77.4705 246.84L60.5105 244.84C53.2039 243.933 47.7905 242.067 44.2705 239.24C40.8039 236.36 39.0705 232.2 39.0705 226.76C39.0705 222.92 40.2972 219.613 42.7505 216.84C45.2572 214.067 48.8839 211.96 53.6305 210.52C58.3772 209.027 64.0839 208.28 70.7505 208.28C77.2039 208.28 83.2572 209 88.9105 210.44C94.5639 211.827 99.4972 213.987 103.711 216.92L92.4305 228.92C90.0305 226.84 86.7772 225.16 82.6705 223.88C78.5639 222.6 74.2172 221.96 69.6305 221.96C66.2172 221.96 63.6305 222.307 61.8705 223C60.1105 223.64 59.2305 224.6 59.2305 225.88C59.2305 227 59.7372 227.827 60.7505 228.36C61.8172 228.893 63.7639 229.32 66.5905 229.64L81.2305 231.08C86.7772 231.667 91.2039 232.627 94.5105 233.96C97.8705 235.24 100.324 237.053 101.871 239.4C103.417 241.747 104.191 244.733 104.191 248.36C104.191 254.92 101.177 259.987 95.1505 263.56C89.1772 267.133 80.8039 268.92 70.0305 268.92Z" fill="white"/>
<path d="M118.021 267V210.2H138.501V267H118.021Z" fill="white"/>
<path d="M156.99 210.2H177.47V251.32H213.31V267H156.99V210.2Z" fill="white"/>
<path d="M231.257 210.2L246.137 245.16C246.937 246.973 247.551 249 247.977 251.24H248.297C248.724 249 249.337 246.973 250.137 245.16L265.017 210.2H287.737L260.537 267H235.737L208.537 210.2H231.257Z" fill="white"/>
<path d="M320.095 253.24H359.535V267H299.615V210.2H358.975V223.96H320.095V232.04H357.615V244.68H320.095V253.24Z" fill="white"/>
<path d="M408.484 248.44H396.564V267H376.084V210.2H415.844C424.857 210.2 431.31 211.987 435.204 215.56C439.15 219.08 441.124 223.507 441.124 228.84C441.124 232.413 440.164 235.773 438.244 238.92C436.377 242.013 433.39 244.387 429.284 246.04L443.044 267H420.484L408.484 248.44ZM396.564 236.2H410.964C414.004 236.2 416.19 235.613 417.524 234.44C418.857 233.213 419.524 231.587 419.524 229.56C419.524 227.64 418.857 226.12 417.524 225C416.19 223.827 414.03 223.24 411.044 223.24H396.564V236.2Z" fill="white"/>
<defs>
<linearGradient id="paint0_linear" x1="240" y1="0" x2="240" y2="701.818" gradientUnits="userSpaceOnUse">
<stop stop-color="#08021E"/>
<stop offset="1" stop-color="#1F0777"/>
</linearGradient>
<linearGradient id="paint1_linear" x1="240" y1="0" x2="240" y2="701.818" gradientUnits="userSpaceOnUse">
<stop stop-color="#08021E"/>
<stop offset="1" stop-color="#1F0777"/>
</linearGradient>
</defs>
</svg>

<svg width="480" height="480" viewBox="0 0 480 480" fill="none" xmlns="http://www.w3.org/2000/svg"><circle cx="240" cy="240" r="240" fill="url(#paint0_linear)"/><path d="M413.332 74h-44.615c-26.479 0-49.238 10.625-68.278 31.874L246.427 172h98.441l16.957-20.643c3.287-3.762 7.334-5.647 12.149-5.647h86.795a236.19 236.19 0 00-3.128-7h-83.667c-6.927 0-12.865 2.828-17.42 8.042l-.07.08L341.559 165h-80.376l44.574-54.572C323.562 90.611 344.443 81 368.717 81h51.061a240.48 240.48 0 00-6.446-7zM66.667 406h45.017c26.479 0 49.239-10.732 68.278-32.205L233.888 308h-98.686l-16.626 20.303c-3.508 3.771-7.554 5.648-12.149 5.648H19.086a238.894 238.894 0 003.114 7h84.227c6.778 0 12.614-2.87 17.274-7.88l.151-.162L138.518 315H219.1l-44.464 54.252C156.819 389.299 135.94 399 111.684 399H60.221a240.688 240.688 0 006.446 7zm394.243-72.04h-86.936c-4.603 0-8.535-1.77-11.822-5.317L345.245 308h-98.397l53.918 65.795C319.585 395.268 342.238 406 368.717 406h44.615a239.704 239.704 0 006.446-7h-51.061c-24.257 0-45.021-9.701-62.611-29.732L261.634 315h80.296l14.942 18.244.145.156c4.535 4.895 10.294 7.56 16.957 7.56h83.821a239.708 239.708 0 003.115-7zM19.23 145.71h87.197c4.816 0 8.862 1.885 12.149 5.647L135.439 172h41.187l28.614-34.922-25.278-30.873C160.923 84.741 138.269 74 112.011 74H66.667a241.47 241.47 0 00-6.446 7h51.79c24.015 0 44.794 9.694 62.624 29.748l21.557 26.328L173.312 165H138.76l-14.836-18.161-.077-.087c-4.554-5.214-10.493-8.042-17.42-8.042H22.358a238.014 238.014 0 00-3.127 7z" fill="#00D1FF"/><path d="M70.031 268.92c-7.36 0-14.373-1.093-21.04-3.28-6.613-2.24-11.68-5.04-15.2-8.4l13.2-11.52c2.987 2.667 6.613 4.88 10.88 6.64a35.64 35.64 0 0013.36 2.56c8.32 0 12.48-1.52 12.48-4.56 0-1.067-.453-1.84-1.36-2.32-.853-.533-2.48-.933-4.88-1.2l-16.96-2c-7.307-.907-12.72-2.773-16.24-5.6-3.467-2.88-5.2-7.04-5.2-12.48 0-3.84 1.227-7.147 3.68-9.92 2.507-2.773 6.133-4.88 10.88-6.32 4.747-1.493 10.453-2.24 17.12-2.24 6.453 0 12.507.72 18.16 2.16 5.653 1.387 10.587 3.547 14.8 6.48l-11.28 12c-2.4-2.08-5.653-3.76-9.76-5.04-4.107-1.28-8.453-1.92-13.04-1.92-3.413 0-6 .347-7.76 1.04-1.76.64-2.64 1.6-2.64 2.88 0 1.12.507 1.947 1.52 2.48 1.067.533 3.013.96 5.84 1.28l14.64 1.44c5.547.587 9.973 1.547 13.28 2.88 3.36 1.28 5.813 3.093 7.36 5.44 1.547 2.347 2.32 5.333 2.32 8.96 0 6.56-3.013 11.627-9.04 15.2-5.973 3.573-14.347 5.36-25.12 5.36zm47.991-1.92v-56.8h20.48V267h-20.48zm38.968-56.8h20.48v41.12h35.84V267h-56.32v-56.8zm74.268 0l14.88 34.96c.8 1.813 1.413 3.84 1.84 6.08h.32c.427-2.24 1.04-4.267 1.84-6.08l14.88-34.96h22.72l-27.2 56.8h-24.8l-27.2-56.8h22.72zm88.837 43.04h39.44V267h-59.92v-56.8h59.36v13.76h-38.88v8.08h37.52v12.64h-37.52v8.56zm88.389-4.8h-11.92V267h-20.48v-56.8h39.76c9.013 0 15.467 1.787 19.36 5.36 3.947 3.52 5.92 7.947 5.92 13.28 0 3.573-.96 6.933-2.88 10.08-1.867 3.093-4.853 5.467-8.96 7.12l13.76 20.96h-22.56l-12-18.56zm-11.92-12.24h14.4c3.04 0 5.227-.587 6.56-1.76 1.333-1.227 2-2.853 2-4.88 0-1.92-.667-3.44-2-4.56-1.333-1.173-3.493-1.76-6.48-1.76h-14.48v12.96z" fill="#fff"/><defs><linearGradient id="paint0_linear" x1="240" y1="0" x2="240" y2="701.818" gradientUnits="userSpaceOnUse"><stop stop-color="#08021E"/><stop offset="1" stop-color="#1F0777"/></linearGradient></defs></svg>
